outputs/icons/image/iso_round.svg

<svg width="1200" height="1200" viewBox="0 0 1200 1200" fill="none" xmlns="http://www.w3.org/2000/svg"><g clip-path="url(#clip0_1107_3272)"><path d="M250 450H325V750H250V450Z" fill="black"/><path d="M612.5 525C622.405 524.87 631.87 520.88 638.875 513.875C645.88 506.87 649.87 497.405 650 487.5C649.87 477.595 645.88 468.131 638.875 461.127C631.87 454.122 622.405 450.13 612.5 450H475C455.108 450 436.032 457.902 421.967 471.967C407.902 486.032 400 505.11 400 525V562.5C400 582.39 407.902 601.47 421.967 615.535C436.032 629.6 455.108 637.5 475 637.5H575V675H437.5C427.555 675 418.016 678.95 410.984 685.985C403.951 693.015 400 702.555 400 712.5C400 722.445 403.951 731.985 410.984 739.015C418.016 746.05 427.555 750 437.5 750H575C594.89 750 613.97 742.1 628.035 728.035C642.1 713.97 650 694.89 650 675V637.5C650 617.61 642.1 598.53 628.035 584.465C613.97 570.4 594.89 562.5 575 562.5H475V525H612.5Z" fill="black"/><path fill-rule="evenodd" d="M900 450H800C780.27 450.506 761.485 458.57 747.525 472.527C733.57 486.484 725.505 505.27 725 525V675C725.505 694.73 733.57 713.515 747.525 727.475C761.485 741.43 780.27 749.495 800 750H900C919.73 749.495 938.515 741.43 952.47 727.475C966.43 713.515 974.495 694.73 975 675V525C974.495 505.27 966.43 486.484 952.47 472.527C938.515 458.57 919.73 450.506 900 450ZM900 675H800V525H900V675Z" fill="black"/></g><defs><clipPath id="clip0_1107_3272"><path width="24" fill="white" d="M0 0H1200V1200H0V0z"/></clipPath></defs></svg>

<svg xmlns="http://www.w3.org/2000/svg" width="1200" height="1200" fill="none"><g fill="#000" clip-path="url(#a)"><path d="M250 450h75v300h-75zM612.5 525a38 38 0 0 0 26.375-11.125A38 38 0 0 0 650 487.5a38 38 0 0 0-37.5-37.5H475a75 75 0 0 0-75 75v37.5a74.997 74.997 0 0 0 75 75h100V675H437.5a37.5 37.5 0 0 0-26.516 10.985 37.49 37.49 0 0 0 0 53.03A37.5 37.5 0 0 0 437.5 750H575c19.89 0 38.97-7.9 53.035-21.965A75 75 0 0 0 650 675v-37.5c0-19.89-7.9-38.97-21.965-53.035A75 75 0 0 0 575 562.5H475V525z"/><path fill-rule="evenodd" d="M900 450H800a77.01 77.01 0 0 0-52.475 22.527A77 77 0 0 0 725 525v150a77.02 77.02 0 0 0 22.525 52.475A77.02 77.02 0 0 0 800 750h100a76.999 76.999 0 0 0 75-75V525a77 77 0 0 0-22.53-52.473A77 77 0 0 0 900 450m0 225H800V525h100z"/></g><defs><clipPath id="a"><path fill="#fff" d="M0 0h1200v1200H0z"/></clipPath></defs></svg>
